assets/img/ico-calendar.svg

<?xml version="1.0" encoding="UTF-8"?>
<svg width="14px" height="16px" viewBox="0 0 14 16" version="1.1" xmlns="http://www.w3.org/2000/svg" xmlns:xlink="http://www.w3.org/1999/xlink">
    <!-- Generator: Sketch 50.2 (55047) - http://www.bohemiancoding.com/sketch -->
    <title>calendar-alt.1</title>
    <desc>Created with Sketch.</desc>
    <defs></defs>
    <g id="Design-v1" stroke="none" stroke-width="1" fill="none" fill-rule="evenodd">
        <g id="1.0.0-Homepage" transform="translate(-370.000000, -2547.000000)" fill="#FE9E3C" fill-rule="nonzero">
            <g id="Training-Tracks-Section" transform="translate(-529.000000, 2187.000000)">
                <g id="content" transform="translate(855.000000, 233.000000)">
                    <g id="agile-track" transform="translate(0.000000, 40.000000)">
                        <g id="details" transform="translate(44.000000, 87.000000)">
                            <g id="Stacked-Group">
                                <g id="calendar-alt.1">
                                    <path d="M13.625,4.93462957 L0.375,4.93462957 C0.16875,4.93462957 0,4.76808582 0,4.56453235 L0,3.4542407 C0,2.63694268 0.671875,1.97385183 1.5,1.97385183 L3,1.97385183 L3,0.370097218 C3,0.166543748 3.16875,0 3.375,0 L4.625,0 C4.83125,0 5,0.166543748 5,0.370097218 L5,1.97385183 L9,1.97385183 L9,0.370097218 C9,0.166543748 9.16875,0 9.375,0 L10.625,0 C10.83125,0 11,0.166543748 11,0.370097218 L11,1.97385183 L12.5,1.97385183 C13.328125,1.97385183 14,2.63694268 14,3.4542407 L14,4.56453235 C14,4.76808582 13.83125,4.93462957 13.625,4.93462957 Z M0.375,5.92155548 L13.625,5.92155548 C13.83125,5.92155548 14,6.08809923 14,6.2916527 L14,14.3104257 C14,15.1277238 13.328125,15.7908146 12.5,15.7908146 L1.5,15.7908146 C0.671875,15.7908146 0,15.1277238 0,14.3104257 L0,6.2916527 C0,6.08809923 0.16875,5.92155548 0.375,5.92155548 Z M4,12.2132082 C4,12.0096547 3.83125,11.843111 3.625,11.843111 L2.375,11.843111 C2.16875,11.843111 2,12.0096547 2,12.2132082 L2,13.4468656 C2,13.650419 2.16875,13.8169628 2.375,13.8169628 L3.625,13.8169628 C3.83125,13.8169628 4,13.650419 4,13.4468656 L4,12.2132082 Z M4,8.26550453 C4,8.06195106 3.83125,7.89540731 3.625,7.89540731 L2.375,7.89540731 C2.16875,7.89540731 2,8.06195106 2,8.26550453 L2,9.49916192 C2,9.70271539 2.16875,9.86925914 2.375,9.86925914 L3.625,9.86925914 C3.83125,9.86925914 4,9.70271539 4,9.49916192 L4,8.26550453 Z M8,12.2132082 C8,12.0096547 7.83125,11.843111 7.625,11.843111 L6.375,11.843111 C6.16875,11.843111 6,12.0096547 6,12.2132082 L6,13.4468656 C6,13.650419 6.16875,13.8169628 6.375,13.8169628 L7.625,13.8169628 C7.83125,13.8169628 8,13.650419 8,13.4468656 L8,12.2132082 Z M8,8.26550453 C8,8.06195106 7.83125,7.89540731 7.625,7.89540731 L6.375,7.89540731 C6.16875,7.89540731 6,8.06195106 6,8.26550453 L6,9.49916192 C6,9.70271539 6.16875,9.86925914 6.375,9.86925914 L7.625,9.86925914 C7.83125,9.86925914 8,9.70271539 8,9.49916192 L8,8.26550453 Z M12,12.2132082 C12,12.0096547 11.83125,11.843111 11.625,11.843111 L10.375,11.843111 C10.16875,11.843111 10,12.0096547 10,12.2132082 L10,13.4468656 C10,13.650419 10.16875,13.8169628 10.375,13.8169628 L11.625,13.8169628 C11.83125,13.8169628 12,13.650419 12,13.4468656 L12,12.2132082 Z M12,8.26550453 C12,8.06195106 11.83125,7.89540731 11.625,7.89540731 L10.375,7.89540731 C10.16875,7.89540731 10,8.06195106 10,8.26550453 L10,9.49916192 C10,9.70271539 10.16875,9.86925914 10.375,9.86925914 L11.625,9.86925914 C11.83125,9.86925914 12,9.70271539 12,9.49916192 L12,8.26550453 Z" id="Shape"></path>
                                </g>
                            </g>
                        </g>
                    </g>
                </g>
            </g>
        </g>
    </g>
</svg>

<svg width="14" height="16" viewBox="0 0 14 16" xmlns="http://www.w3.org/2000/svg"><title>calendar-alt.1</title><path d="M13.625 4.935H.375A.374.374 0 0 1 0 4.565v-1.11c0-.818.672-1.481 1.5-1.481H3V.37c0-.203.169-.37.375-.37h1.25C4.831 0 5 .167 5 .37v1.604h4V.37c0-.203.169-.37.375-.37h1.25c.206 0 .375.167.375.37v1.604h1.5c.828 0 1.5.663 1.5 1.48v1.11c0 .204-.169.37-.375.37zm-13.25.987h13.25c.206 0 .375.166.375.37v8.018a1.49 1.49 0 0 1-1.5 1.48h-11A1.49 1.49 0 0 1 0 14.31V6.292c0-.204.169-.37.375-.37zM4 12.213a.374.374 0 0 0-.375-.37h-1.25a.374.374 0 0 0-.375.37v1.234c0 .203.169.37.375.37h1.25a.374.374 0 0 0 .375-.37v-1.234zm0-3.947a.374.374 0 0 0-.375-.37h-1.25a.374.374 0 0 0-.375.37v1.233c0 .204.169.37.375.37h1.25A.374.374 0 0 0 4 9.5V8.266zm4 3.947a.374.374 0 0 0-.375-.37h-1.25a.374.374 0 0 0-.375.37v1.234c0 .203.169.37.375.37h1.25a.374.374 0 0 0 .375-.37v-1.234zm0-3.947a.374.374 0 0 0-.375-.37h-1.25a.374.374 0 0 0-.375.37v1.233c0 .204.169.37.375.37h1.25A.374.374 0 0 0 8 9.5V8.266zm4 3.947a.374.374 0 0 0-.375-.37h-1.25a.374.374 0 0 0-.375.37v1.234c0 .203.169.37.375.37h1.25a.374.374 0 0 0 .375-.37v-1.234zm0-3.947a.374.374 0 0 0-.375-.37h-1.25a.374.374 0 0 0-.375.37v1.233c0 .204.169.37.375.37h1.25A.374.374 0 0 0 12 9.5V8.266z" fill="#FE9E3C" fill-rule="nonzero"/></svg>
